images/lighting.svg

<svg width="58" height="46" viewBox="0 0 44 44" fill="none" xmlns="http://www.w3.org/2000/svg">
<path d="M22 10.7318C15.7868 10.7318 10.7313 15.7873 10.7313 22.0007C10.7313 28.2141 15.7868 33.269 22 33.269C28.2132 33.269 33.2687 28.2141 33.2687 22.0007C33.2687 15.7873 28.2132 10.7318 22 10.7318Z" fill="#4F4F4F"/>
<path d="M22.0002 8.84955C22.3899 8.84955 22.7061 8.53327 22.7061 8.14356V0.705987C22.7061 0.316282 22.3899 0 22.0002 0C21.6105 0 21.2942 0.316282 21.2942 0.705987V8.14356C21.2942 8.53327 21.6105 8.84955 22.0002 8.84955Z" fill="#4F4F4F"/>
<path d="M22.0002 35.1504C21.6105 35.1504 21.2942 35.4667 21.2942 35.8564V43.294C21.2942 43.6837 21.6105 44 22.0002 44C22.3899 44 22.7061 43.6837 22.7061 43.294V35.8564C22.7061 35.4667 22.3899 35.1504 22.0002 35.1504Z" fill="#4F4F4F"/>
<path d="M11.7038 12.7014C11.8415 12.8391 12.0222 12.9082 12.2029 12.9082C12.3837 12.9082 12.5644 12.8391 12.7021 12.7014C12.9781 12.4254 12.9781 11.9792 12.7021 11.7031L7.44259 6.44423C7.16656 6.16819 6.72038 6.16819 6.44435 6.44423C6.16832 6.72027 6.16832 7.16645 6.44435 7.44249L11.7038 12.7014Z" fill="#4F4F4F"/>
<path d="M32.2978 31.2992C32.0217 31.0232 31.5756 31.0232 31.2995 31.2992C31.0235 31.5753 31.0235 32.0215 31.2995 32.2975L36.559 37.5564C36.6967 37.6941 36.8774 37.7633 37.0581 37.7633C37.2388 37.7633 37.4196 37.6941 37.5572 37.5564C37.8333 37.2804 37.8333 36.8342 37.5572 36.5581L32.2978 31.2992Z" fill="#4F4F4F"/>
<path d="M31.798 12.9082C31.9787 12.9082 32.1594 12.8391 32.2971 12.7014L37.5565 7.44249C37.8326 7.16645 37.8326 6.72027 37.5565 6.44423C37.2805 6.16819 36.8343 6.16819 36.5583 6.44423L31.2988 11.7031C31.0228 11.9792 31.0228 12.4254 31.2988 12.7014C31.4372 12.8391 31.6179 12.9082 31.798 12.9082Z" fill="#4F4F4F"/>
<path d="M11.7038 31.2992L6.44435 36.5581C6.16832 36.8342 6.16832 37.2804 6.44435 37.5564C6.58201 37.6941 6.76274 37.7633 6.94347 37.7633C7.1242 37.7633 7.30493 37.6941 7.44259 37.5564L12.7021 32.2975C12.9781 32.0215 12.9781 31.5753 12.7021 31.2992C12.426 31.0232 11.9791 31.0232 11.7038 31.2992Z" fill="#4F4F4F"/>
<path d="M43.294 21.294H35.8567C35.467 21.294 35.1507 21.6103 35.1507 22C35.1507 22.3897 35.467 22.706 35.8567 22.706H43.294C43.6837 22.706 44 22.3897 44 22C44 21.6103 43.6837 21.294 43.294 21.294Z" fill="#4F4F4F"/>
<path d="M8.85003 22C8.85003 21.6103 8.53376 21.294 8.14406 21.294H0.705969C0.316274 21.294 0 21.6103 0 22C0 22.3897 0.316274 22.706 0.705969 22.706H8.14335C8.53376 22.706 8.85003 22.3904 8.85003 22Z" fill="#4F4F4F"/>
</svg>

<svg width="58" height="46" viewBox="0 0 44 44" fill="none" xmlns="http://www.w3.org/2000/svg"><path d="M22 10.732c-6.213 0-11.269 5.055-11.269 11.269 0 6.213 5.056 11.268 11.269 11.268s11.269-5.055 11.269-11.268c0-6.214-5.056-11.27-11.269-11.27zM22 8.85c.39 0 .706-.317.706-.706V.706a.706.706 0 00-1.412 0v7.438c0 .39.316.706.706.706zM22 35.15a.706.706 0 00-.706.706v7.438a.706.706 0 001.412 0v-7.438A.706.706 0 0022 35.15zM11.704 12.701a.704.704 0 00.998 0 .705.705 0 000-.998l-5.26-5.259a.705.705 0 10-.998.998l5.26 5.26zM32.298 31.3a.705.705 0 10-.999.997l5.26 5.26a.704.704 0 00.998 0 .705.705 0 000-.999l-5.26-5.259zM31.798 12.908c.18 0 .361-.069.5-.207l5.258-5.259a.705.705 0 10-.998-.998l-5.26 5.26a.705.705 0 00.5 1.204zM11.704 31.3l-5.26 5.258a.705.705 0 10.999.998l5.26-5.258a.705.705 0 10-1-.999zM43.294 21.294h-7.437a.706.706 0 000 1.412h7.437a.706.706 0 000-1.412zM8.85 22a.706.706 0 00-.706-.706H.706a.706.706 0 000 1.412h7.437c.39 0 .707-.316.707-.706z" fill="#4F4F4F"/></svg>
